/* XPM */
static char * vam_tool_xpm[] = {
"32 32 5 1",
"  c None",
". c #1e3a5f",
"X c #3d8fd9",
"o c #ffffff",
"# c #0f1f33",
"                                ",
"        ................        ",
"      ..XXXXXXXXXXXXXXXX..      ",
"     .XXXXXXXXXXXXXXXXXXXX.     ",
"    .XXXXXXXXXXXXXXXXXXXXXX.    ",
"   .XXXXXXXXXXXXXXXXXXXXXXXX.   ",
"   .XXXXXXooooooooooXXXXXXX.   ",
"  .XXXXXXooooooooooooXXXXXX.  ",
"  .XXXXXooooooooooooooXXXXX.  ",
"  .XXXXooooooooooooooooXXXX.  ",
"  .XXXXooooooooooooooooXXXX.  ",
"  .XXXooooooooooooooooooXXX.  ",
"  .XXXooooooooooooooooooXXX.  ",
"  .XXXooooooooooooooooooXXX.  ",
"  .XXXooooooooooooooooooXXX.  ",
"  .XXXooooooooooooooooooXXX.  ",
"  .XXXooooooooooooooooooXXX.  ",
"  .XXXXooooooooooooooooXXXX.  ",
"  .XXXXooooooooooooooooXXXX.  ",
"  .XXXXXooooooooooooooXXXXX.  ",
"  .XXXXXXooooooooooooXXXXXX.  ",
"   .XXXXXXooooooooooXXXXXXX.   ",
"   .XXXXXXXXXXXXXXXXXXXXXXXX.   ",
"    .XXXXXXXXXXXXXXXXXXXXXX.    ",
"     .XXXXXXXXXXXXXXXXXXXX.     ",
"      ..XXXXXXXXXXXXXXXX..      ",
"        ................        ",
"                                ",
"                                ",
"                                ",
"                                "};
